X:1
T:Title
%%score ( 1 2 ) 3
L:1/8
Q:1/4=95
M:4/4
K:Ab
V:1 treble nm="Grand Piano, Soprano"
V:2 treble 
V:3 bass nm="Choir Pad, Sunshine and Rain"
V:1
 [CE]>[CA] [DB]>[CA] [Ec]>[CA] [Fd]>[Ec] | [EB]2 [DF]2 [DB]3 [FA] | %2
w: By~Charles~Hutchinson~Gabriel * * * * * * *||
 [EG]>E [EG]>[GB] [Ge]>[Fd] [DB]>[=D_c] | c->[Ac-] [Gc-]>[Fc-] [Ec]2 z2 | %4
w: ||
 [CE]>[CA] [DB]>[CA] [Ec]>[CA] [Fd]>[Ec] | [DB]2 [DF]2 [DB]3 [FA] | %6
w: ||
 [EG]>E [EG]>[GB] [Ge]>[Fd] [DB]>[Ec] | [CA]6 z2 | [Ge]2 [Fd]>[Fd] [Ec]2 [DB]2 | %9
w: |||
 (3[CA][Ec][DB] (3[CA][EG][DF] [CE]4 | [DG]>[DE] [DG]>[GB] [Ge]4 | [Af]>[Ae] [A=d]>[Ae] [Ec]4 | %12
w: |||
 [Ge]2 [Fd]>[Fd] [Ec]2 [DB]2 | (3[CA][Ec][DB] (3[CA][EG][DF] [CE]4 | %14
w: ||
 [DG]>[DE] [DG]>[GB] [Ge]>[Fd] [DB]>[Ec] | [CA]8 |] %16
w: ||
V:2
 x8 | x8 | x8 | E4 z4 | x8 | x8 | x8 | x8 | x8 | x8 | x8 | x8 | x8 | x8 | x8 | x8 |] %16
V:3
 [A,,A,]>[A,,A,] [A,,A,]>[A,,A,] [A,,A,]>[A,,A,] [A,,A,]>[A,,A,] | [D,F,]2 [D,B,]2 [D,F,]3 [D,B,] | %2
 [E,B,]>[E,G,] [E,B,]>[E,B,] [E,B,]>[E,B,] [E,G,]>[E,G,] | [A,,A,]4- [A,,A,]>D C>B, | %4
 [A,,A,]>[A,,A,] [A,,A,]>[A,,A,] [A,,A,]>[A,,A,] [A,,A,]>[A,,A,] | [D,F,]2 [D,B,]2 [D,F,]3 [D,B,] | %6
 [E,B,]>[E,G,] [E,B,]>[E,E] [E,B,]>[E,B,] [E,G,]>[E,G,] | [A,,A,]6 z2 | %8
 [E,B,]2 [E,B,]>[E,B,] [E,G,]2 [E,G,]2 | (3[A,,A,][A,,A,][A,,A,] (3:2:2[A,,A,]2 [A,,A,] [A,,A,]4 | %10
 [B,,E,]>[B,,G,] [E,B,]>[E,D] [E,D]4 | [A,D]>[A,C] [A,_C]>[A,=C] A,4 | %12
 [E,B,]2 [E,B,]>[E,B,] [E,G,]2 [E,G,]2 | (3[A,,A,][A,,A,][A,,A,] (3:2:2[A,,A,]2 [A,,A,] [A,,A,]4 | %14
 [B,,E,]>[B,,G,] [E,B,]>[E,D] [E,B,]>[E,B,] [E,G,]>[E,G,] | [A,,A,]8 |] %16

